!!!OTL: Old Dan Tucker
!!!ARE: United States of America
!!!COM: Daniel Decatur Emmett
!!!CDT: 1815/10/29/-1904/06/28/
!!!LYR: Daniel Decatur Emmett
!!!AMD: Pentatonic
**kern
=1-
*clefG2
*k[f#]
*M4/4
*MM180
{4g/
4g/
4g/
4e/
=2
4g/
4g/
4g/}
8r
{8d/
=3
4g/
4g/
4g/
4b/
=4
4d/
4d/
4d/}
8r
{8d/
=5
4g/
4g/
4g/
4e/
=6
4g/
4g/
4g/}
8r
{8d/
=7
4g/
4g/
4g/
4b/
=8
4d/
4d/
2d/}
=9
!! Refrain
{8b/
4b/
8b/
4.b/
8b/
=10
4a/
4g/
8e/
4.g/}
=11
{8a/
4.a/
4a/
8b/
=12
4d/
4d/
8e/
4.g/}
=13
{8b\
4b\
8b\
8dd\
4dd\
8b\
=14
4dd\
4b\
8a/
4.g/}
=15
{4a/
4a/
4.a/
8b/
=16
4d/
4d/
8e/
4.g/}
==
*-
